src/actions/16/distribute-vertical-bottom.svg

<svg xmlns="http://www.w3.org/2000/svg" viewBox="0 0 16 16">
    <path d="M3 2v4H2v1h8V6H9V2H3zm1 1h4v3H4V3zm8 4-2 3h4l-2-3zM3 9v4H2v1h8v-1H9V9H3zm1 1h4v3H4v-3zm6 1 2 3 2-3h-4z" style="fill:currentColor;fill-opacity:1;stroke:none;color:#050505;opacity:.7"/>
</svg>

<svg xmlns="http://www.w3.org/2000/svg" viewBox="0 0 16 16">
  <defs id="defs3051">
    <style type="text/css" id="current-color-scheme">
      .ColorScheme-Text {
        color:#363636;
      }
      </style>
  </defs>
 <path style="fill:currentColor;fill-opacity:1;stroke:none" 
     d="M 3 2 L 3 4 L 3 5 L 3 6 L 2 6 L 2 7 L 3 7 L 9 7 L 10 7 L 10 6 L 9 6 L 9 5 L 9 4 L 9 2 L 3 2 z M 4 3 L 8 3 L 8 6 L 4 6 L 4 3 z M 12 7 L 10 10 L 14 10 L 12 7 z M 3 9 L 3 13 L 2 13 L 2 14 L 10 14 L 10 13 L 9 13 L 9 9 L 4 9 L 3 9 z M 4 10 L 8 10 L 8 13 L 4 13 L 4 10 z M 10 11 L 12 14 L 14 11 L 10 11 z "
     class="ColorScheme-Text"
     />
</svg>
